!!!SOCIAL_FUNCTION:	bird dance songs
!!!PDT:	1956
!!!OTL: No_103_Stomp_Dance_Song_(e).krn
!!!LANG: Non-Tone
!!!LING_GROUP: Muskogean
!!!REG: Florida
**kern
*staff1
=1-
=
*clefF4
*k[b-]
*M2/4
16c\LK
8.c\J
8A\L
8F\J
=2||
*M3/4
8.G\L
16G\Jk
8G\L
8G\J
(8F\L
8E\J)
=3||
*M2/4
8.G\L
16G\Jk
8G\L
16G\L
16G\JJ
=4
8.G\L
16G\Jk
8G\L
8G\J
=5
8.A\L
16A\Jk
8A\L
8F\J
=6||
*M3/4
8.G\L
16G\Jk
8G\L
8F\J
8C/L
8C/J
=7||
*M3/8
8F\L
8F\
8F\J
=8||
*M2/4
8.F\L
16F\Jk
8F\L
8F\J
==:|!
*-
